!!!COM: Gabriel Faure/
!!!CNT: Francais
!!!TXO: Francais
!!!OTL: Nocturne
!!!LYR: Auguste, Comte de Villiers de L'isle-Adam
!!!OPS: Op. 43
!!!ONM: No. 2
!!!ENC: Jacob Pegg
!!!YOR: Album of Twenty Songs (Vingt Me/lodies,) Volume II
!!!YOR: Edward B. Marks Music Corporation, RCA Building, Radio
!!!YOR: City, New York 20, N.Y.
!!!ODT: 1886/
!!NB: Vocal melody and text only encoded.
!!NB: First instance of melodic material only encoded.
**kern	**silbe
*clef G2	*
*k[]	*
*M3/4	*
*MM76	*
!!created: 2/27/04 3:11 PM
!!proofed and posted: 2/29/04 9:01 PM
!!edit time: 16 min.
=1	=1
2.r	.
=2	=2
4r	.
4r	.
{4g	{La
=3	=3
4cc	nuit,
8cc	sur
8dd	le
8ee	grand
8gg	mys-
=4	=4
4ff	-te/-
4ee}	-re,}
{4dd	{entr'-
=5	=5
4cc	-ou-
8b-	-vre
8a-	ses
8g	e/-
8f	-crins
=6	=6
[2cc	bleus;
4cc]}	|}
=7	=7
4r	.
4r	.
{4b-	{Au-
=8	=8
8cc	-tant
8dd	de
(8ff	fleurs
8ee)	|
8cc	sur
8dd	la
=9	=9
2b-	ter-
4b-}	-re}
=10	=10
4r	.
{4cc	{Que
(8cc	d'e/-
8dd)	|
=11	=11
2b-	-toi-
(8b-	-les
8cc)	|
=12	=12
2a-	dans
(8a-	les
8b-)	|
=13	=13
[2.g	cieux!
=14	=14
4g_	|
8g]}	|}
8r	.
4r	.
!!15-27 rep of 2-12
=28	=28
{2cc	{Moi,
4dd	ma
=29	=29
4ee-	nuit
4gg	au
8ff	som-
8ee-	-bre
=30	=30
2dd	voi-
4cc}	-le}
=31	=31
4r	.
{4ee-	{N'a,
4ff	pour
=32	=32
4.gg	char-
8aa	-me et
8gg	pour
8ff	clar-
=33	=33
2.ee-}	-te/,}
=34	=34
4r	.
{4ff	{Qu'u-
4gg	-ne
=35	=35
4.aan	fleur
8gg	et
8ff	qu'une
8ee	e/-
=36	=36
2ee	-toi-
[4dd	-le:
=37	=37
2dd]}	|}
4r	.
=38	=38
2.r	.
=39	=39
4r	.
{4.cc	{Mon
8cc	a-
=40	=40
2.gg	-mour
=41	=41
4ff	et
4.ff	ta
8ff	beau-
=42	=42
[2.ee-	-te/.
=43	=43
2.ee-_	|
=44	=44
2ee-]}	|}
4r	.
*-	*-
